tools/download-figma-icons/icons/outlined-medium/clock.svg

<svg width="24" height="24" viewBox="0 0 24 24" fill="none" xmlns="http://www.w3.org/2000/svg">
<path fill-rule="evenodd" clip-rule="evenodd" d="M1.5 12C1.5 17.79 6.21 22.5 12 22.5C17.79 22.5 22.5 17.79 22.5 12C22.5 6.21 17.79 1.5 12 1.5C6.21 1.5 1.5 6.21 1.5 12ZM0 12C0 5.3835 5.3835 0 12 0C18.6165 0 24 5.3835 24 12C24 18.6165 18.6165 24 12 24C5.3835 24 0 18.6165 0 12ZM12.75 5.29403V11.6953L17.2148 16.2815C17.5035 16.5785 17.4975 17.0533 17.2013 17.342C17.055 17.4838 16.866 17.5543 16.6778 17.5543C16.4827 17.5543 16.287 17.4785 16.1408 17.3278L11.4705 12.5308L11.469 12.5285L11.463 12.5233C11.4524 12.5123 11.4456 12.4996 11.4389 12.487C11.4338 12.4773 11.4286 12.4676 11.4218 12.4588C11.3775 12.4033 11.334 12.3478 11.307 12.281C11.2855 12.2289 11.2787 12.1739 11.2719 12.1185C11.2709 12.1102 11.2698 12.1019 11.2688 12.0935C11.2671 12.0796 11.2634 12.0664 11.2597 12.0533C11.2549 12.0359 11.25 12.0186 11.25 11.9998V5.29403C11.25 4.87928 11.586 4.54403 12 4.54403C12.414 4.54403 12.75 4.87928 12.75 5.29403Z" fill="black"/>
</svg>

<svg xmlns="http://www.w3.org/2000/svg" width="24" height="24" fill="none" viewBox="0 0 24 24"><path fill="currentColor" fill-rule="evenodd" d="M1.5 12c0 5.79 4.71 10.5 10.5 10.5S22.5 17.79 22.5 12 17.79 1.5 12 1.5 1.5 6.21 1.5 12M0 12C0 5.384 5.384 0 12 0s12 5.384 12 12-5.384 12-12 12S0 18.616 0 12m12.75-6.706v6.401l4.465 4.587a.75.75 0 0 1-1.074 1.046l-4.67-4.797-.002-.003-.006-.005a.2.2 0 0 1-.024-.036l-.017-.028a.7.7 0 0 1-.115-.178.6.6 0 0 1-.035-.163l-.003-.024-.01-.04q-.008-.026-.009-.054V5.294a.75.75 0 1 1 1.5 0" clip-rule="evenodd"/></svg>
